docs/assets/images/calc-svg/chamfer-13.svg

<svg width="77" height="44" viewBox="0 0 77 44" fill="none" xmlns="http://www.w3.org/2000/svg">
<path d="M1.69379 35.7885L1 13.1909L20.327 16.9186L33.8536 36.0072C34.2097 36.5098 34.401 37.1105 34.401 37.7264V40.0252C34.401 41.2501 33.6717 42.2692 32.6597 42.7322C32.613 42.7535 32.5657 42.7737 32.5178 42.7927C31.9695 43.0099 31.3478 43.0672 30.7188 42.9129L1.69379 35.7885Z" fill="#D2D2D2"/>
<path d="M34.401 37.7264V40.0252C34.401 41.2501 33.6717 42.2692 32.6597 42.7322L74.5416 24.8688C75.5589 24.5381 76.3256 23.5845 76.3256 22.4155V20.3745C76.3256 19.5078 76.0416 18.6649 75.517 17.975L64.6303 3.65701L20.327 16.9186L33.8536 36.0072C34.2097 36.5098 34.401 37.1105 34.401 37.7264Z" fill="#D2D2D2"/>
<path d="M46.3936 1L1 13.1909L20.327 16.9186L64.6303 3.65701L46.3936 1Z" fill="#D2D2D2"/>
<path d="M1 13.1909L46.3936 1L64.6303 3.65701M1 13.1909L1.69379 35.7885L30.7188 42.9129C31.3478 43.0672 31.9695 43.0099 32.5178 42.7927M1 13.1909L20.327 16.9186M20.327 16.9186L33.8536 36.0072C34.2097 36.5098 34.401 37.1105 34.401 37.7264V40.0252C34.401 41.2501 33.6717 42.2692 32.6597 42.7322M20.327 16.9186L64.6303 3.65701M64.6303 3.65701L75.517 17.975C76.0416 18.6649 76.3256 19.5078 76.3256 20.3745V22.4155C76.3256 23.5845 75.5589 24.5381 74.5416 24.8688L32.6597 42.7322M32.5178 42.7927L32.6597 42.7322M32.5178 42.7927C32.5657 42.7737 32.613 42.7535 32.6597 42.7322" stroke="#838383"/>
</svg>

<svg width="77" height="44" fill="none" xmlns="http://www.w3.org/2000/svg"><path d="M1.694 35.788L1 13.191l19.327 3.728 13.527 19.088c.356.503.547 1.104.547 1.72v2.298a2.97 2.97 0 01-3.682 2.888L1.694 35.789z" fill="#D2D2D2"/><path d="M34.401 37.726v2.3a2.97 2.97 0 01-1.741 2.706L74.542 24.87a2.577 2.577 0 001.784-2.453v-2.041c0-.867-.284-1.71-.809-2.4L64.63 3.657 20.327 16.919l13.527 19.088c.356.503.547 1.104.547 1.72z" fill="#D2D2D2"/><path d="M46.394 1L1 13.19l19.327 3.729L64.63 3.657 46.394 1z" fill="#D2D2D2"/><path d="M1 13.19L46.394 1 64.63 3.657M1 13.191l.694 22.597 29.025 7.125a2.95 2.95 0 001.799-.12M1 13.19l19.327 3.728m0 0l13.527 19.088c.356.503.547 1.104.547 1.72v2.298a2.97 2.97 0 01-1.741 2.707M20.327 16.92L64.63 3.657m0 0l10.887 14.318c.525.69.809 1.533.809 2.4v2.04a2.577 2.577 0 01-1.784 2.454L32.66 42.732m-.142.06l.142-.06m-.142.06c.048-.018.095-.038.142-.06" stroke="#838383"/></svg>
